X: 22410
T: Ladies In The Center
R: polka
M: 2/4
K: Dmajor
|:D>E FA|BA FA|dB Ad|fd e2|
D>E FA|BA FA|dB AF|EF D2:|
|:fa af|ed BA|dc/B/ Ad|fd e2|
fa af|ed BA|dc/B/ AF|EF D2:|

